X:1
T: Willie's Awa'
C:
R:Strathspey
Q: 128
K:Bb
M:4/4
L:1/16
|:d2|B3F DFDF B2F2 Dd3|B3F GFED C4 C3d|B3F DFDF B2G2 F3D|EG3 F3A, B,4 B,2d2|
B3F DFDF B2F2 Dd3|B3F GFED C4 C3d|B3F DFDF B2G2 F3D|EG3 F3A, B,4 B,2F2|
B4 d2f2 e2c2 A2e2|dB3 e3d c4 c3d|B4 d2f2 e2c2 A2B2|F3B d3c B4 B3F|
B4 d2f2 e2c2 A2e2|dB3 e3d c4 c3a|b3g f2d2 e2f2 g3b|f3e d3c B4 B2:|
